X:242
T:Polloness ur Matthias Silvius Svenonis notbok
T:(SmM I:242)
R:Polska
S:Matthias Silvius Svenonis
B:Småländsk Musiktradition
N:Småländsk Musiktradition, I:242
Z:Till abc Jonas Brunskog
M:3/4
L:1/8
K:Gm
d>d c2 d2|B>A B2 G2|gg ab ag|^f2 f4:|
|:d>d g2 f2|ed ef d2-|dc c2 e2|dc B2 d2|cB A3 G|G2 G4:|

